X:1
T:The Perishing World
T:The Perishing World
T:Barney Elliott Warren
T:William G. Schell, 1893, & Clara Brooks
T:Public Domain Courtesy of the Cyber Hymnal™
T:Public Domain Courtesy of the Cyber Hymnal™
C:Barney Elliott Warren
Z:Public Domain
Z:Courtesy of the Cyber Hymnal™
%%score ( 1 2 ) ( 3 4 )
L:1/8
Q:1/4=90
M:4/4
K:Db
V:1 treble 
V:2 treble 
V:3 bass 
V:4 bass 
V:1
 D[DE] | [DF][DF][DF][DF] [DF][CE][DF][EG] | [FA][FA]D[DE] [DF]2 [EG][DF] | %3
w: 1.~On the|bor- ders of e- ter- ni- ty The|world is stand- ing now, In a|
w: 2.~Oh, how|grate- ful- ly we wel- come now The|gleam of free- dom’s light, Yet the|
w: 3.~We will|pray the Lord to send His Sav- ing|truth thro’ ev- ery land, “Go ye,|
 [CE][CE][CE][CE] [Ac][GB][FA][EG] | [DF][DF][DF][EG] [FA]2 D[DE] | %5
w: mo- ment all the wick- ed Will be|lost in end- less woe; Oh, they|
w: mil- lions have not seen it, Still they|roam in deep- est night; Hear, oh|
w: there- fore,” saith the Mas- ter; Do you|hear the great com- mand? Oh, re-|
 [DF][DF][DF][DF] [DF][CE][DF][EG] | [FA][FA]D[DE] [DF]2 [FA][FA] | %7
w: need some Gos- pel teach- er That they|might sal- va- tion know; Who will|
w: hear from ev- ery na- tion Cries of|sor- row and dis- tress, Time is|
w: view your con- se- cra- tion, Has- ten|to the har- vest field, And a|
 [GB][Ac][Bd][GB] [FA][DF]D[DE] | [DF][DF][CE][CE] !fermata!D2 x2 ||"^Refrain" [DF][EG] x4 | %10
w: quick- ly go and warn them? Bro- ther,|sis- ter, will you go?||
w: sure- ly, swift- ly end- ing, Haste their|dy- ing souls to bless.|Hear them|
w: thou- sand souls in Hea- ven Ga- thered,|be thy gold- en yield.||
 [FA]4 [DF]2 [Fd][Ge] | [Af]4 [Fe]2 [Ec][Fd] | [Ge]4 [GA]2 [Af][Ge] (d4 A2) [DF][EG] | %13
w: |||
w: call- ing for the|Gos- pel, Come and|help us to be saved; * Hear them|
w: |||
 [FA]4 [DF]2 [Fd][Ge] | [Af]4 [Fd]2 [Ec][Fd] | [Ge]4 [GA]2 [Af][Ge] | d4- [Fd]2 x2 |] x8 | x6 |] %19
w: ||||||
w: call- ing for the|Gos- pel, Come and|help us to be|saved. *|||
w: ||||||
V:2
 D x | x8 | x2 D x5 | x8 | x6 D x | x8 | x2 D x5 | x6 D x | x4 D2 x2 || x6 | x8 | x8 | x8 F6 x2 | %13
 x8 | x8 | x8 | FFGG x4 |] x8 | x6 |] %19
V:3
 [D,F,][D,G,] | [D,A,][D,A,][D,A,][D,A,] [D,A,][A,,A,][D,A,][D,A,] | %2
w: ~ ~|~ ~ ~ ~ ~ ~ ~ ~|
 [D,D][D,D][D,F,][D,G,] [D,A,]2 [C,A,][D,A,] | [A,,A,][A,,A,] x6 | %4
w: ~ ~ ~ ~ ~ ~ ~|~ ~|
 [A,,A,][A,,A,][A,,A,][A,,A,] [A,,A,][A,,A,] x2 | [D,A,][D,A,][D,A,][D,A,] [D,D]2 [D,F,][D,G,] | %6
w: ~ ~ ~ ~ ~ ~|~ ~ ~ ~ ~ ~ ~|
 [D,A,][D,A,][D,A,][D,A,] [D,A,][A,,A,][D,A,][D,A,] | [D,D][D,D][D,F,][D,G,] [D,A,]2 [D,D][D,D] | %8
w: ~ ~ ~ ~ ~ ~ ~ ~|~ ~ ~ ~ ~ ~ ~|
 [G,D][G,D][G,D][G,D] [D,D][D,A,][F,A,][G,B,] || A,A,[A,,G,][A,,G,] !fermata![D,F,]2 | z2 x6 | %11
w: ~ ~ ~ ~ ~ ~ ~ ~|~ ~ ~ ~ ~||
 [D,D][D,D][D,D][D,D] [D,A,][D,A,] z2 | [D,D][D,D][D,D][D,D] [D,A,][D,A,] z2 x8 | %13
w: Call- ing, hear them call- ing,|Call- ing for the Gos- pel,|
 [A,C][A,C][A,C][A,C] [A,C][A,C] z2 | [D,A,][D,A,][D,A,][D,A,] [D,D]2 z2 | %15
w: Help us, come and help us,|Help us to be saved;|
 [D,D][D,D][D,D][D,D] [D,A,][D,A,] z2 | [D,D][D,D][D,D][D,D] [D,A,][D,A,] z2 |] %17
w: Call- ing, hear them call- ing,|Call- ing for the Gos- pel,|
 [A,C][A,C][A,C][A,C] [A,C][A,C] z2 | [D,A,]D,[D,B,][D,B,] [D,A,]2 |] %19
w: Help us, come and help us,|Help us to be saved;|
V:4
 x2 | x8 | x8 | x8 | x8 | x8 | x8 | x8 | x8 || A,A, x4 | x8 | x8 | x16 | x8 | x8 | x8 | x8 |] x8 | %18
 x D, x4 |] %19

